X:2
T:Little Mushiegrove
B:Motherwell's Minstrelsy, Appendix, p. xx, XXI, one stanza.
S:via Andrew Blaikie, Paisley.
L:1/8
Q:1/4=120
M:4/4
K:G
D2|G2 GF E2 cB|A3/G/FA D2 DD|
w:It fell up_on a_ Mar_tin-mas time When the
G2 G=F E2 cB|B2 A4 D2|GA Bc d2 cB|
w:no-bles were all drink-ing wine,_ That lit-tle Mush-ie-grove to the
c2 BA G2 A3/A/|B2 G2 D2 F3/F/|G6|]
w:kirk he did go For to see the la-dies come in.
